X:219
T:The Essacks Dance
O:No 219 Page 108 William Clarke of Feltwell
M:2/4
L:1/16
N:First 3 notes in bars B1 and B4 have been changed from 3 quavers in M.s.
K:C
cdef gfga|g2ga gfed|cdef gfga|g2c'2c4::e2fg g2f2|d2df f2e2|egec dfdB|c2ce G4|e2eg g2f2|d2df f2e2|egec dfdB|c4C4::eGeG dGdG|eGeGf4|eGeG dGdG|cBcd c2G2|eGeG dGdG|eGeG f4|egec dfdB|c4C4:|

